static/images/mobile/copyright/wikipedia-wordmark-oc.svg

<?xml version="1.0" encoding="UTF-8"?>
<svg width="120px" height="19px" viewBox="0 0 120 19" version="1.1" xmlns="http://www.w3.org/2000/svg" xmlns:xlink="http://www.w3.org/1999/xlink">
    <title>oc-wordmark</title>
    <g id="Page-1" stroke="none" stroke-width="1" fill="none" fill-rule="evenodd">
        <path d="M26.1499371,0.492587941 C26.303604,0.655353591 26.303604,1.22958271 26.1499371,1.39335933 C24.4626335,1.61172815 24.1694532,2.65403489 23.6376847,3.93088592 L17.5870486,17.8488654 C17.4081074,18.2583069 17.2544405,18.4766758 16.9744027,18.4766758 C16.7186281,18.4766758 16.5214896,18.255274 16.38602,17.8488654 L12.9477221,9.92692982 L9.17782698,17.8488654 C9.025171,18.2583069 8.84521891,18.4766758 8.56417015,18.4766758 C8.30940653,18.4766758 8.12945444,18.2583069 7.97679846,17.8488654 L2.41648124,3.87730468 C1.63702566,1.93928139 1.58546635,1.53085081 0.128663243,1.3943703 C-0.0250037061,1.23059368 -0.0502778753,0.657375524 0.103389073,0.493598908 C1.30441759,0.519884044 1.7391333,0.548191113 2.76122091,0.548191113 C3.75803414,0.548191113 4.39696514,0.520895011 5.59900462,0.493598908 C5.75267157,0.656364557 5.75267157,1.23059368 5.59900462,1.3943703 C3.98853456,1.58443205 3.91978882,2.01611486 4.56175272,3.57704755 L9.24151789,14.9564895 L9.35879003,14.9564895 L12.2137602,8.7562303 L10.05939,3.87730468 C9.20310115,1.93928139 8.99888586,1.55814691 7.89895402,1.3943703 C7.74629804,1.23059368 7.7200129,0.657375524 7.87367985,0.493598908 C8.69155197,0.519884044 9.12626768,0.548191113 10.1483551,0.548191113 C11.1451683,0.548191113 11.5546099,0.520895011 12.4745896,0.493598908 C12.6282566,0.656364557 12.6282566,1.23059368 12.4745896,1.3943703 C11.4009429,1.55814691 11.5030505,2.02116969 12.2036505,3.57704755 L13.4612932,6.33395392 L13.5735105,6.4562809 L14.928206,3.74082417 C15.717771,2.15866117 15.8229115,1.55814691 14.7239907,1.3943703 C14.5703237,1.22857175 14.5703237,0.655353591 14.7239907,0.492587941 C15.6702556,0.518873077 16.1555196,0.547180146 16.7428913,0.547180146 C17.331274,0.547180146 17.970205,0.519884044 18.609136,0.492587941 C18.7617919,0.655353591 18.7617919,1.22958271 18.609136,1.39335933 C17.2797147,1.61172815 16.7246939,2.65100199 16.0958726,3.93088592 L14.227606,7.72706613 L17.4970725,14.9554785 L17.6143447,14.9554785 L22.4690071,3.7398132 C23.0745762,2.26279075 23.0311046,1.52882888 21.3700862,1.39335933 C21.2164192,1.22958271 21.2164192,0.656364557 21.3700862,0.492587941 C22.5711147,0.518873077 23.3121534,0.547180146 23.900536,0.547180146 C24.4889187,0.547180146 25.1278497,0.519884044 26.1499371,0.492587941 Z M31.3331637,5.54034501 C31.4868306,5.70412163 31.4868306,6.27733979 31.3331637,6.4411164 C29.7742529,6.57759692 29.4932042,6.65948522 29.4932042,8.92405078 L29.4932042,14.818998 C29.4921932,17.0835636 29.773242,17.1937589 31.3321527,17.3019324 C31.4858197,17.465709 31.4858197,18.0389272 31.3321527,18.2027038 C30.2332318,18.1764186 29.5943009,18.1481116 28.49538,18.1481116 C27.370174,18.1481116 26.7059688,18.1754077 25.6323221,18.2027038 C25.4796661,18.0389272 25.4796661,17.465709 25.6323221,17.3019324 C27.1912328,17.1654519 27.4732926,17.0835636 27.4732926,14.818998 L27.4732926,8.92405078 C27.4732926,6.65948522 27.1922438,6.55030081 25.6323221,6.4411164 C25.4796661,6.27733979 25.4796661,5.70412163 25.6323221,5.54034501 C26.731243,5.56764111 27.370174,5.59493722 28.4701058,5.59493722 C29.5943009,5.59493722 30.259517,5.56865208 31.3331637,5.54034501 Z M33.7594839,6.4411164 C33.606828,6.27733979 33.606828,5.70412163 33.7594839,5.54034501 C34.8331306,5.56764111 35.4973358,5.59493722 36.6225418,5.59493722 C37.5688067,5.59493722 37.9772373,5.56865208 39.0761582,5.54034501 C39.2288141,5.70412163 39.2288141,6.27733979 39.0761582,6.4411164 C37.8488445,6.57759692 37.6193551,6.65948522 37.6193551,8.92405078 L37.6193551,11.352393 C38.4625013,11.352393 39.2116277,10.9217211 40.3034718,9.60544238 C42.2718241,7.23169241 42.5275987,6.52199374 41.2497367,6.44010543 C41.0960698,6.27632882 41.0960698,5.70311066 41.2497367,5.53933404 C42.3486576,5.56663015 43.3201967,5.59392625 44.0612353,5.59392625 C44.7254405,5.59392625 45.1601562,5.56764111 45.8506465,5.53933404 C46.0033025,5.70311066 46.0033025,6.27632882 45.8506465,6.44010543 C44.8285591,6.49469764 43.8903819,6.63320009 43.1149704,7.58654175 L40.9171286,10.287845 C40.4824129,10.7791748 40.328746,11.0794319 40.328746,11.2978008 C40.328746,11.4615774 40.4308536,11.5980579 40.5592464,11.7618345 L44.3422841,16.5103454 C44.6769141,16.9248418 45.288549,17.2190331 45.9780283,17.3009214 C46.1306843,17.464698 46.1306843,18.0106201 45.9780283,18.1743967 C45.9780283,18.1743967 44.7254405,18.1471006 44.009676,18.1471006 C43.3444599,18.1471006 42.7055289,18.1743967 42.4244801,18.2016928 L42.4244801,17.8195474 C42.4244801,17.464698 42.3992059,17.1654519 42.0413237,16.7287142 L39.2045509,12.9618521 C38.8213945,12.41593 38.1814526,12.2794495 37.6193551,12.2794495 L37.6193551,14.817987 C37.6193551,17.0825526 37.8498555,17.1644409 39.0761582,17.3009214 C39.2288141,17.464698 39.2288141,18.0379162 39.0761582,18.2016928 C37.9772373,18.1754077 37.5677957,18.1471006 36.6225418,18.1471006 C35.4973358,18.1471006 34.8331306,18.1743967 33.7594839,18.2016928 C33.606828,18.0379162 33.606828,17.464698 33.7594839,17.3009214 C35.3183947,17.1644409 35.5994435,17.0825526 35.5994435,14.817987 L35.5994435,8.92303982 C35.5994435,6.65847426 35.3183947,6.57658595 33.7594839,6.4411164 L33.7594839,6.4411164 Z M51.7769337,14.818998 C51.7769337,17.0835636 52.0579824,17.1937589 53.6168932,17.3019324 C53.7705601,17.465709 53.7705601,18.0389272 53.6168932,18.2027038 C52.5179723,18.1764186 51.8790413,18.1481116 50.7801204,18.1481116 C49.6549144,18.1481116 48.9907093,18.1754077 47.9170625,18.2027038 C47.7644066,18.0389272 47.7644066,17.465709 47.9170625,17.3019324 C49.4759733,17.1654519 49.7570221,17.0835636 49.7570221,14.818998 L49.7570221,8.92405078 C49.7570221,6.65948522 49.4759733,6.55030081 47.9170625,6.4411164 C47.7644066,6.27733979 47.7644066,5.70412163 47.9170625,5.54034501 C49.0159834,5.56764111 49.6549144,5.59493722 50.7548463,5.59493722 C51.8790413,5.59493722 52.5442574,5.56865208 53.6179042,5.54034501 C53.7715711,5.70412163 53.7715711,6.27733979 53.6179042,6.4411164 C52.0589934,6.57759692 51.7779446,6.65948522 51.7779446,8.92405078 L51.7779446,14.818998 L51.7769337,14.818998 Z M61.8208885,17.3019324 C61.9735445,17.465709 61.9735445,18.0389272 61.8208885,18.2027038 C60.7209567,18.1764186 60.0820257,18.1481116 58.9831048,18.1481116 C57.8589097,18.1481116 57.1936936,18.1754077 56.1200469,18.2027038 C55.96638,18.0389272 55.96638,17.465709 56.1200469,17.3019324 C57.6789577,17.1654519 57.9600064,17.0835636 57.9600064,14.818998 L57.9600064,8.92405078 C57.9600064,6.65948522 57.6789577,6.55030081 56.1200469,6.4411164 C55.96638,6.27733979 55.96638,5.70412163 56.1200469,5.54034501 C57.2189678,5.56764111 57.8578988,5.59493722 58.9568197,5.59493722 C59.64731,5.59493722 60.7209567,5.54034501 61.6662106,5.54034501 C65.2955813,5.54034501 66.063916,7.4510722 66.063916,8.86945858 C66.063916,10.5072247 65.0155435,13.1266396 61.5893771,13.1266396 C60.9504461,13.1266396 60.4399079,13.0184662 59.979918,12.7990864 L59.979918,14.818998 C59.979918,17.0835636 60.2609668,17.192748 61.8208885,17.3019324 Z M59.979918,11.9256111 C60.4904562,12.1439799 61.1293872,12.2258682 61.6409364,12.2258682 C63.175584,12.2258682 63.8397891,11.1643531 63.8397891,9.19701181 C63.8397891,7.28325172 63.0209061,6.44010543 61.5135546,6.44010543 C60.2862409,6.44010543 59.979918,6.79495477 59.979918,7.66843006 L59.979918,11.9256111 Z M71.9262596,0.00530195905 C71.6453847,0.0410901826 71.1662653,0.186770494 70.7257365,0.637156189 L70.6625511,0.921490592 L73.6006733,3.89120547 C73.9848407,4.29963605 74.1789463,4.42828157 74.3588984,4.42828157 C74.5378395,4.42828157 74.7064182,4.27284543 74.7064182,4.08076174 C74.7064182,3.77544978 74.629332,3.64073846 74.4220838,3.29094395 L72.4949284,0.068487382 C72.4170839,0.0432132128 72.2431977,0.00530195905 72.1158158,0.00530195905 C72.0748717,0.00530195905 72.0198852,-0.00662744881 71.9262596,0.00530195905 Z M77.1706497,5.50243376 C76.8127674,5.556015 76.6396394,5.59716134 76.1280902,5.59716134 L70.8521074,5.59716134 C70.8521074,5.59716134 69.1086952,5.56127202 68.0087633,5.53397592 C67.8561074,5.69775254 67.8561074,6.28638794 68.0087633,6.45016455 C69.5686851,6.55934896 69.8411406,6.64983049 69.8411406,8.91439605 L69.8411406,14.8222331 C69.8411406,17.0867987 69.5686851,17.1499841 68.0087633,17.2864646 C67.8561074,17.4502412 67.8561074,18.0388766 68.0087633,18.2026532 C69.0824101,18.1753571 70.8521074,18.1394678 70.8521074,18.1394678 L74.8011963,18.1394678 C75.8232837,18.1394678 77.5181695,18.2026532 77.5181695,18.2026532 C77.8244924,17.083513 78.0974535,15.5895569 78.2763946,14.4431206 C78.0469051,14.307651 77.8298,14.2348614 77.5497622,14.3167497 C77.1413316,15.9262088 76.4106554,17.2864646 74.8011963,17.2864646 L72.6844846,17.2864646 C72.2244948,17.2864646 71.8630741,16.6045675 71.8630741,16.0859416 L71.8630741,12.0104818 L73.3163389,12.0104818 C75.1310242,12.0104818 75.0339714,12.5169761 75.0855307,13.5269319 C75.2139235,13.6634124 75.6847813,13.6634124 75.8121631,13.5269319 C75.7858779,12.7353955 75.7489777,12.3009325 75.7489777,11.5366417 C75.7489777,10.7723508 75.7868889,10.2918888 75.8121631,9.60948625 C75.6847813,9.47300574 75.2139235,9.47300574 75.0855307,9.60948625 C75.0339714,10.8378109 75.1057501,11.0996513 73.3163389,11.1259364 L71.8630741,11.1259364 L71.8630741,7.2716256 C71.8630741,6.80759185 72.1992206,6.48180781 72.6844846,6.48180781 L74.6432328,6.48180781 C76.2284286,6.48180781 76.5526962,7.39117242 77.0126861,8.94603931 C77.2684607,8.97333541 77.5035105,8.92784191 77.7077258,8.81966846 C77.6056181,7.89160097 77.3159761,5.75568093 77.2654278,5.56561918 C77.2654278,5.51001601 77.222209,5.50243376 77.1706497,5.50243376 L77.1706497,5.50243376 Z M86.7371755,5.54034501 C91.0054771,5.54034501 93.1012072,8.37913969 93.1012072,12.0074994 C93.1012072,16.7833064 89.9318304,18.2016928 87.0950577,18.2016928 C85.0498719,18.2016928 84.1288812,18.1471006 83.3635794,18.1471006 C82.2383733,18.1471006 81.5741682,18.1743967 80.5005215,18.2016928 C80.3468545,18.0379162 80.3468545,17.464698 80.5005215,17.3009214 C82.0604432,17.1644409 82.340481,17.0825526 82.340481,14.817987 L82.340481,8.92303982 C82.340481,6.65847426 82.0604432,6.54928985 80.5005215,6.44010543 C80.3468545,6.27632882 80.3468545,5.70311066 80.5005215,5.53933404 C81.5994423,5.56663015 82.2383733,5.59392625 83.3383052,5.59392625 C83.8235692,5.59493722 86.0719593,5.54034501 86.7371755,5.54034501 L86.7371755,5.54034501 Z M86.4803899,17.3019324 C89.2918885,17.3019324 90.8780953,16.2919766 90.8780953,12.4725441 C90.8780953,9.63374945 90.2897127,6.4411164 85.9951258,6.4411164 C84.9983126,6.4411164 84.3603926,6.60489302 84.3603926,7.28729559 L84.3603926,16.0736078 C84.3603926,16.8378986 84.5383227,17.3019324 86.4803899,17.3019324 L86.4803899,17.3019324 Z M99.0032312,14.818998 C99.0032312,17.0835636 99.283269,17.1937589 100.843191,17.3019324 C100.995847,17.465709 100.995847,18.0389272 100.843191,18.2027038 C99.7432589,18.1764186 99.1043279,18.1481116 98.005407,18.1481116 C96.880201,18.1481116 96.2159958,18.1754077 95.1423491,18.2027038 C94.9896931,18.0389272 94.9896931,17.465709 95.1423491,17.3019324 C96.7022708,17.1654519 96.9823086,17.0835636 96.9823086,14.818998 L96.9823086,8.92405078 C96.9823086,6.65948522 96.7022708,6.55030081 95.1423491,6.4411164 C94.9896931,6.27733979 94.9896931,5.70412163 95.1423491,5.54034501 C96.242281,5.56764111 96.880201,5.59493722 97.9801328,5.59493722 C99.1043279,5.59493722 99.769544,5.56865208 100.843191,5.54034501 C100.995847,5.70412163 100.995847,6.27733979 100.843191,6.4411164 C99.283269,6.57759692 99.0032312,6.65948522 99.0032312,8.92405078 L99.0032312,14.818998 Z M108.09991,17.3019324 C108.253577,17.465709 108.253577,18.0389272 108.09991,18.2027038 C107.153645,18.1764186 105.876794,18.1481116 104.828422,18.1481116 C103.832619,18.1481116 103.500011,18.1754077 102.553746,18.2027038 C102.401091,18.0389272 102.401091,17.465709 102.553746,17.3019324 C103.66581,17.2200441 104.435156,17.0512126 105.110481,15.3649201 L110.792115,1.16589181 C111.083273,0.433951869 111.276368,0.191319844 111.654469,0.191319844 C112.012352,0.191319844 112.157931,0.48348924 112.343949,1.01121389 L117.5848,15.8016577 C118.057933,17.2069015 118.894002,17.2069015 119.88475,17.3019324 C120.038417,17.465709 120.038417,18.0389272 119.88475,18.2027038 C118.938485,18.1764186 118.018505,18.1481116 116.970133,18.1481116 C115.97433,18.1481116 114.568076,18.1754077 113.621811,18.2027038 C113.469155,18.0389272 113.469155,17.465709 113.621811,17.3019324 C114.839015,17.2089234 115.893453,17.3079982 115.513329,16.1838031 L113.954419,11.5717727 L108.636734,11.5717727 C108.024088,11.5717727 107.870421,11.6799462 107.742028,12.0358065 L106.335773,15.9917195 C105.938463,17.1128816 107.139492,17.2301537 108.09991,17.3019324 L108.09991,17.3019324 Z M113.544977,10.4253364 L111.066087,3.13929894 L111.014527,3.13929894 L108.453749,10.0623994 C108.346586,10.3576017 108.530582,10.4253364 109.097734,10.4253364 L113.544977,10.4253364 Z" id="oc-wordmark" fill="#000000" fill-rule="nonzero"></path>
    </g>
</svg>

<svg xmlns="http://www.w3.org/2000/svg" width="120" height="19"><path fill="#000" fill-rule="nonzero" d="M26.15.493c.154.162.154.737 0 .9-1.687.219-1.98 1.261-2.512 2.538l-6.051 13.918c-.179.41-.333.628-.613.628-.255 0-.453-.222-.588-.628l-3.438-7.922-3.77 7.922c-.153.41-.333.628-.614.628-.255 0-.435-.219-.587-.628L2.417 3.877C1.636 1.94 1.584 1.531.128 1.394c-.154-.163-.18-.737-.026-.9C1.304.52 1.74.548 2.761.548 3.758.548 4.397.521 5.6.494c.154.162.154.737 0 .9-1.61.19-1.68.622-1.037 2.183l4.68 11.38h.117l2.855-6.2-2.155-4.88C9.203 1.94 9 1.558 7.9 1.394c-.153-.163-.179-.737-.025-.9.818.026 1.252.054 2.274.054.997 0 1.407-.027 2.327-.054.153.162.153.737 0 .9-1.074.164-.972.627-.271 2.183l1.257 2.757.113.122 1.354-2.715c.79-1.582.895-2.183-.204-2.347-.154-.165-.154-.739 0-.901.946.026 1.432.054 2.019.054.588 0 1.227-.027 1.866-.054.153.162.153.737 0 .9-1.33.219-1.884 1.258-2.513 2.538l-1.868 3.796 3.27 7.228h.116L22.47 3.74c.606-1.477.562-2.211-1.099-2.347-.154-.163-.154-.737 0-.9 1.201.026 1.942.054 2.53.054.589 0 1.228-.027 2.25-.054Zm5.183 5.047c.154.164.154.737 0 .901-1.559.137-1.84.218-1.84 2.483v5.895c0 2.265.28 2.375 1.84 2.483.153.164.153.737 0 .9-1.1-.026-1.739-.054-2.838-.054-1.125 0-1.789.027-2.863.055-.152-.164-.152-.737 0-.901 1.56-.137 1.841-.218 1.841-2.483V8.924c0-2.265-.28-2.374-1.84-2.483-.153-.164-.153-.737 0-.9 1.098.027 1.737.054 2.837.054 1.124 0 1.79-.026 2.863-.055Zm2.426.901c-.152-.164-.152-.737 0-.9 1.074.027 1.738.054 2.864.054.946 0 1.354-.026 2.453-.055.153.164.153.737 0 .901-1.227.137-1.457.218-1.457 2.483v2.428c.844 0 1.593-.43 2.684-1.747 1.969-2.373 2.225-3.083.947-3.165-.154-.164-.154-.737 0-.9 1.099.027 2.07.054 2.811.054.664 0 1.1-.026 1.79-.055.152.164.152.737 0 .901-1.022.055-1.96.193-2.736 1.147l-2.198 2.7c-.435.492-.588.792-.588 1.01 0 .165.102.301.23.465l3.783 4.748c.335.415.947.709 1.636.79.153.165.153.71 0 .874 0 0-1.253-.027-1.968-.027-.666 0-1.304.027-1.586.055v-.382c0-.355-.025-.655-.383-1.091l-2.836-3.767c-.384-.546-1.024-.683-1.586-.683v2.539c0 2.265.23 2.346 1.457 2.483.153.164.153.737 0 .9-1.099-.026-1.508-.054-2.453-.054-1.126 0-1.79.027-2.864.055-.152-.164-.152-.737 0-.901 1.56-.137 1.84-.218 1.84-2.483V8.923c0-2.265-.28-2.346-1.84-2.482Zm18.018 8.378c0 2.265.281 2.375 1.84 2.483.154.164.154.737 0 .9-1.099-.026-1.738-.054-2.837-.054-1.125 0-1.79.027-2.863.055-.153-.164-.153-.737 0-.901 1.559-.137 1.84-.218 1.84-2.483V8.924c0-2.265-.281-2.374-1.84-2.483-.153-.164-.153-.737 0-.9 1.099.027 1.738.054 2.838.054 1.124 0 1.79-.026 2.863-.055.154.164.154.737 0 .901-1.559.137-1.84.218-1.84 2.483v5.895h-.001Zm10.044 2.483c.153.164.153.737 0 .9-1.1-.026-1.739-.054-2.838-.054-1.124 0-1.79.027-2.863.055-.154-.164-.154-.737 0-.901 1.559-.137 1.84-.218 1.84-2.483V8.924c0-2.265-.281-2.374-1.84-2.483-.154-.164-.154-.737 0-.9 1.099.027 1.738.054 2.837.054.69 0 1.764-.055 2.71-.055 3.629 0 4.397 1.911 4.397 3.33 0 1.637-1.048 4.257-4.475 4.257-.639 0-1.15-.109-1.61-.328v2.02c0 2.265.282 2.374 1.842 2.483Zm-1.841-5.376c.51.218 1.15.3 1.66.3 1.536 0 2.2-1.062 2.2-3.029 0-1.914-.82-2.757-2.326-2.757-1.228 0-1.534.355-1.534 1.228v4.258ZM71.926.006c-.28.035-.76.18-1.2.631l-.063.284 2.938 2.97c.384.409.578.537.758.537a.356.356 0 0 0 .347-.347c0-.306-.077-.44-.284-.79L72.495.068a1.484 1.484 0 0 0-.38-.063c-.04 0-.095-.012-.189 0Zm5.245 5.496c-.358.054-.531.095-1.043.095h-5.276s-1.743-.036-2.843-.063c-.153.164-.153.752 0 .916 1.56.11 1.832.2 1.832 2.464v5.908c0 2.265-.272 2.328-1.832 2.464-.153.164-.153.753 0 .917 1.073-.028 2.843-.064 2.843-.064h3.95c1.021 0 2.716.064 2.716.064.306-1.12.58-2.613.758-3.76-.23-.135-.446-.208-.726-.126-.409 1.61-1.14 2.97-2.749 2.97h-2.117c-.46 0-.82-.682-.82-1.201V12.01h1.452c1.815 0 1.718.507 1.77 1.517.128.136.599.136.726 0-.026-.792-.063-1.226-.063-1.99 0-.765.038-1.245.063-1.928-.127-.136-.598-.136-.726 0-.052 1.229.02 1.49-1.77 1.517h-1.453V7.272c0-.464.336-.79.821-.79h1.96c1.584 0 1.909.91 2.369 2.464.255.027.49-.018.695-.126-.102-.928-.392-3.064-.443-3.254 0-.056-.043-.064-.094-.064Zm9.566.038c4.268 0 6.364 2.84 6.364 6.467 0 4.776-3.17 6.195-6.006 6.195-2.045 0-2.966-.055-3.731-.055-1.126 0-1.79.027-2.863.055-.154-.164-.154-.737 0-.901 1.56-.137 1.84-.218 1.84-2.483V8.923c0-2.265-.28-2.374-1.84-2.483-.154-.164-.154-.737 0-.9 1.098.027 1.737.054 2.837.054.486 0 2.734-.054 3.4-.054Zm-.257 11.762c2.812 0 4.398-1.01 4.398-4.83 0-2.838-.588-6.03-4.883-6.03-.997 0-1.635.163-1.635.845v8.787c0 .764.178 1.228 2.12 1.228Zm12.523-2.483c0 2.265.28 2.375 1.84 2.483.153.164.153.737 0 .9-1.1-.026-1.739-.054-2.838-.054-1.125 0-1.789.027-2.863.055-.152-.164-.152-.737 0-.901 1.56-.137 1.84-.218 1.84-2.483V8.924c0-2.265-.28-2.374-1.84-2.483-.152-.164-.152-.737 0-.9 1.1.027 1.738.054 2.838.054 1.124 0 1.79-.026 2.863-.055.153.164.153.737 0 .901-1.56.137-1.84.218-1.84 2.483v5.895Zm9.097 2.483c.154.164.154.737 0 .9-.946-.026-2.223-.054-3.272-.054-.995 0-1.328.027-2.274.055-.153-.164-.153-.737 0-.901 1.112-.082 1.881-.25 2.556-1.937l5.682-14.2c.291-.731.484-.974.862-.974.358 0 .504.292.69.82l5.24 14.79c.474 1.406 1.31 1.406 2.3 1.5.154.165.154.738 0 .902-.946-.027-1.865-.055-2.914-.055-.996 0-2.402.027-3.348.055-.153-.164-.153-.737 0-.901 1.217-.093 2.271.006 1.891-1.118l-1.559-4.612h-5.317c-.613 0-.767.108-.895.464l-1.406 3.956c-.398 1.12.803 1.238 1.764 1.31Zm5.445-6.877-2.479-7.286h-.051l-2.561 6.923c-.107.296.077.363.644.363h4.447Z"/></svg>
